X: 40580
T: Tommy's Tarbukas
R: reel
M: 4/4
K: Aminor
|:e2 de cAAc|BGdG eGdG|e2 de cAAc|BgdB cAAG|
A2 ed cAAd|BGdG eGdg|e2 de cAAc|BgdB cAAd:|
EAcA FAcA|GBdc BgdB|EAcA FAcA|BgdB cAAc|
EAcA FAcA|GBdc Bgg^g|aede cAGF|EAGB cAA2|
EAcA FAcA|GBdc BgdB|EAcA FAcA|BgdB cAAc|
EAcA FAcA|GBDc Bgg^g|a (3aaa afed|edcB A2 Bd:|

